X:11756
T:New Policeman
R:reel
S:(Sharon Shannon)
H:
N:
D:Galway Arts Festival Concert
Z:Adrian Scahill
M:4/4
L:1/8
K:D
dAA2 DEFA|d2fe dBBA|B2AF ABde|fede fee2|\
dAA2 DAFA|defe dBBA|B3d ABdB|AFEG FDD2:||\
faab afdf|gfed (3Bcd ef|g2gf gbag|f3a e3f|\\
dBB2 AFF2|DFBF ABdf|afef dBAF|A2ag fdd2:||


